X: 455
T: Cai cha
%%abc-version 2.0
%%abcx-abcm2ps-target-version 5.9.1 (29 Sep 2008)
%%abc-creator hum2abc beta
%%abcx-conversion-date 2013/10/02 07:52:30
%%abc-edited-by Helmut Schaffrath
%%humdrum-veritas 3764786036
%%humdrum-veritas-data 2957513689
%%continueall 1
%%barnumbers 0
L: 1/8
M: 2/4
K: A
AA2B [I:setbarnb 1]| 
c> f e c | 
B4 | 
e2c B | 
c FA2 | 
Bc2e | 
B c B A | 
F2E2 | 
F< A B c | 
E4 |]  



